lib/brands/icons/apple-podcasts.svg

<svg xmlns="http://www.w3.org/2000/svg" fill="none" aria-hidden="true" viewBox="0 0 48 48"><g id="apple-podcasts-Icon"><g id="Group"><path id="Shape" fill="url(#paint0_linear_94_17190)" fill-rule="evenodd" d="M41.292 37.2C40.944 38.088 40.14 39.336 38.988 40.224C38.328 40.728 37.536 41.22 36.456 41.544C35.304 41.892 33.876 42 32.1 42H15.9C14.124 42 12.708 41.88 11.544 41.544C10.464 41.22 9.672 40.74 9.012 40.224C7.872 39.348 7.056 38.088 6.708 37.2C6.012 35.412 6 33.384 6 32.1V15.9C6 14.616 6.012 12.588 6.708 10.8C7.056 9.912 7.86 8.664 9.012 7.776C9.672 7.272 10.464 6.78 11.544 6.456C12.708 6.12 14.124 6 15.9 6H32.1C33.876 6 35.292 6.12 36.456 6.456C37.536 6.78 38.328 7.26 38.988 7.776C40.128 8.652 40.944 9.912 41.292 10.8C42 12.588 42 14.628 42 15.9V32.1C42 33.384 41.988 35.412 41.292 37.2Z" clip-rule="evenodd"/><g id="Union"><path fill="white" d="M23.9639 9.984C17.0759 10.008 11.4359 15.6 11.3399 22.488C11.2679 28.068 14.8319 32.844 19.8119 34.596C19.9319 34.644 20.0519 34.536 20.0399 34.416C20.0199 34.272 19.9986 34.128 19.9773 33.984C19.9346 33.696 19.8919 33.408 19.8599 33.12C19.8359 32.964 19.7399 32.844 19.6079 32.772C15.6719 31.056 12.9239 27.108 12.9719 22.536C13.0319 16.536 17.9279 11.652 23.9159 11.604C30.0479 11.556 35.0519 16.524 35.0519 22.644C35.0519 27.168 32.3159 31.056 28.4159 32.772C28.2719 32.832 28.1759 32.964 28.1639 33.12L27.9839 34.416C27.9599 34.548 28.0919 34.644 28.2119 34.596C33.1439 32.868 36.6839 28.164 36.6839 22.644C36.6599 15.66 30.9599 9.972 23.9639 9.984Z"/><path fill="white" d="M23.9999 24.564C25.6319 24.564 26.9519 23.244 26.9519 21.612C26.9519 19.992 25.6319 18.66 23.9999 18.66C22.3679 18.66 21.0479 19.98 21.0479 21.612C21.0479 23.244 22.3679 24.564 23.9999 24.564Z"/><path fill="white" d="M26.6039 26.7C26.8919 26.988 27.0359 27.3 27.0839 27.732C27.1799 28.572 27.1319 29.292 27.0239 30.456C26.9279 31.56 26.7479 33.024 26.5199 34.524C26.3519 35.592 26.2199 36.168 26.0999 36.576C25.9079 37.236 25.1639 37.824 23.9999 37.824C22.8359 37.824 22.1039 37.248 21.8999 36.576C21.7799 36.168 21.6479 35.592 21.4799 34.524C21.2519 33.036 21.0719 31.56 20.9759 30.456L20.9749 30.443C20.8795 29.2866 20.8203 28.5689 20.9159 27.732C20.9639 27.3 21.1199 27 21.3959 26.7C21.9359 26.124 22.8839 25.764 23.9999 25.764C25.1159 25.764 26.0639 26.136 26.6039 26.7Z"/><path fill="white" d="M15.5279 22.548C15.5879 18.06 19.1879 14.352 23.6759 14.184C28.4999 13.992 32.4959 17.868 32.4839 22.644C32.4839 25.548 31.0079 28.128 28.7759 29.652C28.6559 29.736 28.4999 29.64 28.5119 29.508C28.5359 28.992 28.5479 28.536 28.5239 28.068C28.5239 27.912 28.5839 27.768 28.6919 27.66C30.0239 26.4 30.8639 24.624 30.8639 22.656C30.8639 18.792 27.6479 15.648 23.7359 15.804C20.1359 15.948 17.2439 18.876 17.1479 22.476C17.0999 24.516 17.9399 26.364 19.3199 27.66C19.4399 27.768 19.4999 27.912 19.4879 28.068C19.4639 28.548 19.4639 29.004 19.4999 29.52C19.4999 29.652 19.3439 29.736 19.2359 29.664C16.9679 28.116 15.4919 25.5 15.5279 22.548Z"/></g></g></g><defs><linearGradient id="paint0_linear_94_17190" x1="24" x2="24" y1="6" y2="42" gradientUnits="userSpaceOnUse"><stop stop-color="#F452FF"/><stop offset="1" stop-color="#832BC1"/></linearGradient></defs></svg>

<svg xmlns="http://www.w3.org/2000/svg" fill="none" aria-hidden="true" viewBox="0 0 48 48"><path fill="url(#a)" fill-rule="evenodd" d="M41.292 37.2c-.348.888-1.152 2.136-2.304 3.024-.66.504-1.452.996-2.532 1.32-1.152.348-2.58.456-4.356.456H15.9c-1.776 0-3.192-.12-4.356-.456a7.486 7.486 0 0 1-2.532-1.32c-1.14-.876-1.956-2.136-2.304-3.024C6.012 35.412 6 33.384 6 32.1V15.9c0-1.284.012-3.312.708-5.1.348-.888 1.152-2.136 2.304-3.024.66-.504 1.452-.996 2.532-1.32C12.708 6.12 14.124 6 15.9 6h16.2c1.776 0 3.192.12 4.356.456a7.486 7.486 0 0 1 2.532 1.32c1.14.876 1.956 2.136 2.304 3.024.708 1.788.708 3.828.708 5.1v16.2c0 1.284-.012 3.312-.708 5.1Z" clip-rule="evenodd"/><path fill="#fff" d="M23.964 9.984c-6.888.024-12.528 5.616-12.624 12.504-.072 5.58 3.492 10.356 8.472 12.108.12.048.24-.06.228-.18l-.063-.432c-.042-.288-.085-.576-.117-.864a.476.476 0 0 0-.252-.348c-3.936-1.716-6.684-5.664-6.636-10.236.06-6 4.956-10.884 10.944-10.932 6.132-.048 11.136 4.92 11.136 11.04 0 4.524-2.736 8.412-6.636 10.128a.408.408 0 0 0-.252.348l-.18 1.296c-.024.132.108.228.228.18 4.932-1.728 8.472-6.432 8.472-11.952-.024-6.984-5.724-12.672-12.72-12.66Z"/><path fill="#fff" d="M24 24.564a2.95 2.95 0 0 0 2.952-2.952c0-1.62-1.32-2.952-2.952-2.952a2.95 2.95 0 0 0-2.952 2.952A2.95 2.95 0 0 0 24 24.564Zm2.604 2.136c.288.288.432.6.48 1.032.096.84.048 1.56-.06 2.724a67.681 67.681 0 0 1-.504 4.068c-.168 1.068-.3 1.644-.42 2.052-.192.66-.936 1.248-2.1 1.248-1.164 0-1.896-.576-2.1-1.248-.12-.408-.252-.984-.42-2.052a66.511 66.511 0 0 1-.504-4.068l-.001-.013c-.095-1.156-.155-1.874-.059-2.711.048-.432.204-.732.48-1.032.54-.576 1.488-.936 2.604-.936s2.064.372 2.604.936Z"/><path fill="#fff" d="M15.528 22.548c.06-4.488 3.66-8.196 8.148-8.364 4.824-.192 8.82 3.684 8.808 8.46a8.492 8.492 0 0 1-3.708 7.008c-.12.084-.276-.012-.264-.144.024-.516.036-.972.012-1.44 0-.156.06-.3.168-.408a6.877 6.877 0 0 0 2.172-5.004c0-3.864-3.216-7.008-7.128-6.852-3.6.144-6.492 3.072-6.588 6.672a6.862 6.862 0 0 0 2.172 5.184c.12.108.18.252.168.408-.024.48-.024.936.012 1.452 0 .132-.156.216-.264.144a8.475 8.475 0 0 1-3.708-7.116Z"/><defs><linearGradient id="a" x1="24" x2="24" y1="6" y2="42" gradientUnits="userSpaceOnUse"><stop stop-color="#F452FF"/><stop offset="1" stop-color="#832BC1"/></linearGradient></defs></svg>
